X:8
T: A kölpényi bíró kapujában
S: Mezőkölpény
M:4/4
L:1/4
K:C
A/G/A/d/ c/A/ F | E<D D z |
d/c/e/d/ c/B/c/c/ | d<A A z | 
d/c/e/d/ c/B/c/c/ | d<A G z |
A/G/A/d/ c/A/A/F/ | E<D D z |
W: A kölpényi bíró kapujába
W: Lehullott az akácfa virága.
W: Énelőttem ne seperje senki.
W: Szép a babám, meg ne ölelje senki.
W: 
W: Házunk előtt akácfa virágzik,
W: Tetejébe bús gerlice tanyázik.
W: Bús gerlice olyan szépen énekli:
W: Jaj, de boldog, aki egymást szereti!

